assets/efishery/pompa-air-fill.svg

<svg width="24" height="25" viewBox="0 0 24 25" fill="none" xmlns="http://www.w3.org/2000/svg">
<path fill-rule="evenodd" clip-rule="evenodd" d="M16.75 2.27344C15.3693 2.27344 14.25 3.39282 14.25 4.77344V7.02344H13.75C13.3358 7.02344 13 7.35913 13 7.77344V9.02344H12.5V8.77344C12.5 8.35913 12.1642 8.02344 11.75 8.02344H10.75C10.3358 8.02344 10 8.35913 10 8.77344V9.02344H9.5V6.77344C9.5 6.35913 9.16418 6.02344 8.75 6.02344H4.75C4.33582 6.02344 4 6.35913 4 6.77344V9.77344C4 9.79199 4.00061 9.8103 4.00195 9.82861C4.00354 9.85059 4.0061 9.87207 4.00952 9.89331C2.7937 10.7537 2 12.1709 2 13.7734C2 15.376 2.7937 16.7932 4.00952 17.6536C4.00513 17.6814 4.0022 17.7097 4.00085 17.7383L4 17.7734V20.7734H3.75C3.19775 20.7734 2.75 21.2212 2.75 21.7734C2.75 22.3257 3.19775 22.7734 3.75 22.7734H21.75C22.3022 22.7734 22.75 22.3257 22.75 21.7734C22.75 21.2212 22.3022 20.7734 21.75 20.7734H8.5V18.5234H10V18.7734C10 19.1877 10.3358 19.5234 10.75 19.5234H11.75C12.1642 19.5234 12.5 19.1877 12.5 18.7734V18.5234H18.75C19.1642 18.5234 19.5 18.1877 19.5 17.7734V16.5234H21.75C22.1642 16.5234 22.5 16.1877 22.5 15.7734V11.7734C22.5 11.3591 22.1642 11.0234 21.75 11.0234H19.5V9.77344C19.5 9.35913 19.1642 9.02344 18.75 9.02344H18.5V7.77344C18.5 7.35913 18.1642 7.02344 17.75 7.02344H17.4375V5.27344H22.25V2.27344H16.75ZM11.75 17.0234H10.75V10.5234H11.75V17.0234ZM7 18.5234H5.5V20.0234H7V18.5234ZM8 7.52344V9.02344H5.5V7.52344H8ZM14.5 9.02344H17V8.52344H14.5V9.02344ZM21 15.0234H19.5V12.5234H21V15.0234ZM5.75 12.2734C5.75 11.9973 5.97388 11.7734 6.25 11.7734H8.25C8.52612 11.7734 8.75 11.9973 8.75 12.2734C8.75 12.5496 8.52612 12.7734 8.25 12.7734H6.25C5.97388 12.7734 5.75 12.5496 5.75 12.2734ZM6.25 13.7734C6.15173 13.7734 6.06018 13.8018 5.98291 13.8506C5.84302 13.9392 5.75 14.0955 5.75 14.2734C5.75 14.5496 5.97388 14.7734 6.25 14.7734H8.25C8.52612 14.7734 8.75 14.5496 8.75 14.2734C8.75 14.1216 8.68237 13.9856 8.57556 13.894C8.48816 13.8188 8.37439 13.7734 8.25 13.7734H6.25Z" fill="#1D1D1D"/>
</svg>

<svg viewBox="0 0 24 25" xmlns="http://www.w3.org/2000/svg">
  <path fill-rule="evenodd" clip-rule="evenodd" d="M16.75 2.273a2.5 2.5 0 0 0-2.5 2.5v2.25h-.5a.75.75 0 0 0-.75.75v1.25h-.5v-.25a.75.75 0 0 0-.75-.75h-1a.75.75 0 0 0-.75.75v.25h-.5v-2.25a.75.75 0 0 0-.75-.75h-4a.75.75 0 0 0-.75.75v3a.754.754 0 0 0 .01.12A4.744 4.744 0 0 0 2 13.773c0 1.603.794 3.02 2.01 3.88a.779.779 0 0 0-.01.085v3.035h-.25a1 1 0 0 0 0 2h18a1 1 0 0 0 0-2H8.5v-2.25H10v.25c0 .415.336.75.75.75h1a.75.75 0 0 0 .75-.75v-.25h6.25a.75.75 0 0 0 .75-.75v-1.25h2.25a.75.75 0 0 0 .75-.75v-4a.75.75 0 0 0-.75-.75H19.5v-1.25a.75.75 0 0 0-.75-.75h-.25v-1.25a.75.75 0 0 0-.75-.75h-.313v-1.75h4.813v-3h-5.5zm-5 14.75h-1v-6.5h1v6.5zM7 18.523H5.5v1.5H7v-1.5zm1-11v1.5H5.5v-1.5H8zm6.5 1.5H17v-.5h-2.5v.5zm6.5 6h-1.5v-2.5H21v2.5zm-15.25-2.75a.5.5 0 0 1 .5-.5h2a.5.5 0 0 1 0 1h-2a.5.5 0 0 1-.5-.5zm.5 1.5a.499.499 0 0 0-.5.5.5.5 0 0 0 .5.5h2a.5.5 0 1 0 0-1h-2z"/>
</svg>
